X: 081278
T: House in the Glen
S: "Johnny O'Leary of Sliabh Luachra" (#253)
Z: B.Black
L: 1/8
M: 12/8
Q: 350
R: slide
K: A
ECE A,CE FEC ECE|e2e ABc BAA F/G/AF|
E2E A,CE FEC EC/D/E|e2e ABc BcB A2F :|
efe Ace aga f/g/af|ece fec ecc Bcd|
e2A Ace aga f/g/af|e2c BAB cAG A3 :|
